src/lib/packages/icons/src/assets/filled/user-dollar.svg

<svg width="24" height="24" viewBox="0 0 24 24" fill="none" xmlns="http://www.w3.org/2000/svg">
<path d="M6.00903 6.5C6.00903 4.294 7.80303 2.5 10.009 2.5C12.215 2.5 14.009 4.294 14.009 6.5C14.009 8.706 12.215 10.5 10.009 10.5C7.80303 10.5 6.00903 8.706 6.00903 6.5ZM14.89 15.6899C14.89 15.0099 15.07 14.36 15.37 13.79C15.45 13.66 15.42 13.49 15.29 13.4C14.47 12.84 13.39 12.5 12 12.5H8C3.94 12.5 2.5 15.47 2.5 18.02C2.5 20.3 3.71 21.5 6 21.5H14C14.36 21.5 14.69 21.47 14.99 21.41C15.057 21.385 15.29 21.341 15.29 21.11C15.29 21.07 15.28 21.03 15.27 21C15.08 20.62 14.96 20.19 14.91 19.74C14.85 19.12 15.05 18.5201 15.42 18.0601C15.51 17.9601 15.52 17.83 15.45 17.72C15.09 17.11 14.89 16.4099 14.89 15.6899ZM19.955 16.954L18.559 16.594C18.369 16.544 18.204 16.432 18.079 16.266C17.957 16.105 17.89 15.8991 17.89 15.6851C17.89 15.1691 18.283 14.75 18.765 14.75H19.3719C19.8159 14.75 20.19 15.1071 20.241 15.5811C20.286 15.9931 20.663 16.291 21.068 16.246C21.48 16.201 21.777 15.8309 21.733 15.4189C21.614 14.3309 20.814 13.48 19.798 13.291V13C19.798 12.586 19.462 12.25 19.048 12.25C18.634 12.25 18.298 12.586 18.298 13V13.298C17.211 13.521 16.389 14.5061 16.389 15.6851C16.389 16.2251 16.565 16.753 16.881 17.17C17.203 17.6 17.663 17.911 18.181 18.046L19.577 18.406C19.972 18.51 20.2469 18.8839 20.2469 19.3149C20.2469 19.5679 20.152 19.806 19.979 19.984C19.814 20.155 19.5979 20.25 19.3719 20.25H18.765C18.321 20.25 17.947 19.8929 17.896 19.4189C17.851 19.0069 17.479 18.709 17.069 18.754C16.657 18.799 16.3601 19.1691 16.4041 19.5811C16.5211 20.6551 17.302 21.4981 18.3 21.701V22C18.3 22.414 18.636 22.75 19.05 22.75C19.464 22.75 19.8 22.414 19.8 22V21.707C20.275 21.619 20.713 21.387 21.061 21.026C21.504 20.567 21.749 19.959 21.749 19.316C21.747 18.202 21.012 17.231 19.955 16.954Z" fill="currentColor"/>
</svg>

<svg xmlns="http://www.w3.org/2000/svg" width="24" height="24" fill="none"><path fill="currentColor" d="M6.009 6.5c0-2.206 1.794-4 4-4s4 1.794 4 4-1.794 4-4 4-4-1.794-4-4Zm8.881 9.19c0-.68.18-1.33.48-1.9.08-.13.05-.3-.08-.39-.82-.56-1.9-.9-3.29-.9H8c-4.06 0-5.5 2.97-5.5 5.52 0 2.28 1.21 3.48 3.5 3.48h8c.36 0 .69-.03.99-.09.067-.025.3-.069.3-.3a.36.36 0 0 0-.02-.11c-.19-.38-.31-.81-.36-1.26-.06-.62.14-1.22.51-1.68.09-.1.1-.23.03-.34a4 4 0 0 1-.56-2.03Zm5.065 1.264-1.396-.36a.875.875 0 0 1-.48-.328.964.964 0 0 1-.189-.58c0-.517.393-.936.875-.936h.607c.444 0 .818.357.869.831a.751.751 0 0 0 1.492-.162c-.119-1.088-.919-1.939-1.935-2.128V13a.75.75 0 0 0-1.5 0v.298c-1.087.223-1.909 1.208-1.909 2.387 0 .54.176 1.068.492 1.485.322.43.782.741 1.3.876l1.396.36c.395.104.67.478.67.909a.954.954 0 0 1-.268.669.842.842 0 0 1-.607.266h-.607c-.444 0-.818-.357-.869-.831a.751.751 0 0 0-1.492.162c.117 1.074.898 1.917 1.896 2.12V22a.75.75 0 0 0 1.5 0v-.293c.475-.088.913-.32 1.261-.681a2.45 2.45 0 0 0 .688-1.71c-.002-1.114-.737-2.085-1.794-2.362Z"/></svg>
